!!!!SEGMENT: pl-wumfc--n28541--009-009_moniuszko-stanislaw--verbum-nobile-8-oracya-pana-marcina.krn
!!!cenid: 18xx:4215
!!!COM: Moniuszko, Stanisław
!!!COM-rismID: pe30008351
!!!CDT: 1819/05/05-1872/06/04
!!!CNT: Polish
!!!OPR: Verbum nobile
!!!OTL: 8. Oracya pana Marcina
!!!OMV: 009
!!!PDT:
!!!AGN:
!!!YEC: Copyright 2022 Narodowy Instytut Fryderyka Chopina (https://polishscores.org)
!!!YEM: License CC-BY-4.0 (https://creativecommons.org/licenses/by/4.0)
!!!SMS-siglum: PL-Wumfc
!!!SMS-shelfmark: N28541
!!!SMS-variant:
!!!SMS-altvar:
!!!SMS-shelfwork: 009-009 M
!!!NIFC-rismSourceID: 1001152972
!!!NIFC-rismChildID: 1001152972
!!!NIFC-islandoraID: pl-wumfc:3225
!!!URL-pdf-islandora: https://repozytorium.nifc.pl/islandora/object/pl-wumfc:3225/datastream/PDF/view
!!!URL-scan: https://polish.musicsources.pl/pl/lokalizacje/galeria/druki-muzyczne/12012/32 @EN{Scan on Polish Music Sources Website} @PL{Skany w portalu Dziedzictwo Muzyki Polskiej w otwartym dostępie}
!!!IIIF:
!!!ONB-nifc: Skany 0032-0036
!!!OMD: Lento.
!!!AIN: 1 piano 1 vox
!!!key: G
**kern	**fing	**kern	**fing	**dynam	**kern	**text	**dynam
*part2	*	*part2	*	*	*part1	*	*
*staff3	*	*staff2	*	*	*staff1	*	*
*I"Piano.	*	*I"Piano.	*	*	*I"[Voce]	*	*
*I'	*	*	*	*	*I'	*	*
*Ipiano	*	*Ipiano	*	*	*Ivox	*	*
*ICklav	*	*ICklav	*	*	*ICvox	*	*
*IGacmp	*	*IGacmp	*	*	*IGsolo	*	*
*clefF4	*	*clefG2	*	*	*clefG2	*	*
*	*	*	*	*	*ITrd8c12	*	*
*k[f#]	*	*k[f#]	*	*	*k[f#]	*	*
*G:	*	*G:	*	*	*G:	*	*
*M3/4	*	*M3/4	*	*	*M3/4	*	*
=1	=1	=1	=1	=1	=1	=1	=1
8.r	.	8.r	.	.	4r	.	.
16D 16DD/	.	16f# 16d 16c 16A/	.	.	.	.	.
!	!	!	!	!LO:DY:a	!	!	!
[2D [2DD/	.	[2f# [2d [2c [2A/	.	ffp	4r	.	.
.	.	.	.	.	8.F#/	J	.
.	.	.	.	.	16A/	for-	.
=2	=2	=2	=2	=2	=2	=2	=2
8D]L 8DD/]	.	8f#]L 8d] 8c] 8A/]	.	.	4.d\	-tu-	.
16r	.	16r	.	.	.	.	.
16F#Jk 16D 16FF#/	.	16aJk 16d 16c/	.	.	.	.	.
!	!	!	!	!LO:DY:a	!	!	!
[2F# [>2D [2FF#/	.	[2a [>2d [2c/	.	ffp	.	.	.
.	.	.	.	.	8A/	-ny	.
.	.	.	.	.	8.F#/	i	.
.	.	.	.	.	16A/	ko-	.
=3	=3	=3	=3	=3	=3	=3	=3
8F#]L 8D] 8FF#/]	.	8a]L 8d] 8c/]	.	.	4.d\	-ro-	.
16r	.	16r	.	.	.	.	.
16AJk 16D 16AA/	.	16ccJk 16f# 16d/	.	.	.	.	.
(2A 2D 2AA\	.	(>2cc 2f# 2d/	.	fp	.	.	.
.	.	.	.	.	8A/	-ny	.
.	.	.	.	.	8.A/	i	.
.	.	.	.	.	16B/	wszyst-	.
!!LO:LB:g=original
=4	=4	=4	=4	=4	=4	=4	=4
8.c\L)	.	8.cc/L)	.	.	8.c\	-kie-	.
16A\Jk	.	16a/Jk	.	.	16A/	-go	.
4F#\	.	4f#/	.	.	4F#/	o	.
4ETT\	.	4eTT/	.	.	4E/	co	.
=5	=5	=5	=5	=5	=5	=5	=5
2D;\	.	2d;/	.	.	2D;/	dbasz	.
!	!	!	!	!	!LO:TX:a:B:t=Moderato.	!	!
8.D\L	.	8.d/L	.	p	8.D/	ży-	.
16D\Jk	.	16d/Jk	.	.	16D/	-czy	.
=6	=6	=6	=6	=6	=6	=6	=6
4.G^\	.	4.g^/	.	.	4.G^/	słu-	.
8F#\	.	8f#/	.	.	8F#/	-ga	.
8.A^\L	.	8.a^/L	.	.	8.A^/	u-	.
16G\Jk	.	16g/Jk	.	.	16G/	-ni-	.
=7	=7	=7	=7	=7	=7	=7	=7
(4B^\	.	(4b^/	.	.	4B^/	-żo-	.
8D\)	.	8d/)	.	.	8D/	-ny	.
8r	.	8r	.	.	8r	.	.
!	!	!	!	!LO:DY:t=più f	!	!	!
8.D\L	.	8.d/L	.	f	8.D/	ja-	.
16G\Jk	.	16g/Jk	.	.	16G/	-ko	.
!!LO:LB:g=original
=8	=8	=8	=8	=8	=8	=8	=8
4.B 4.G^\	.	4.b 4.d^/	.	.	4.B^\	zwy-	.
8AL 8F#\	.	8aL 8d/	.	.	8A/	-czaj	.
8.c 8.A^\	.	8.cc 8.d/	.	.	8.c^\	ka-	.
16BJk 16G\	.	16bJk 16g 16d/	.	.	16B\	-że	.
=9	=9	=9	=9	=9	=9	=9	=9
(16B\LL	.	2dd 2g 2d/	.	p	4d\	nasz,	.
16c\	.	.	.	.	.	.	.
16B\	.	.	.	.	.	.	.
16A\JJ)	.	.	.	.	.	.	.
8G'\L	.	.	.	.	4r	.	.
8F#'\	.	.	.	.	.	.	.
8E'\	.	4b 4g/	.	.	8.d\	a	.
8D'\J	.	.	.	.	.	.	.
.	.	.	.	.	16d\	ze	.
=10	=10	=10	=10	=10	=10	=10	=10
*	*	*^	*	*	*	*	*
2C/	.	4.ee/	2g 2e^\	.	.	4.e\	rów-	.
.	.	8cc/L	.	.	.	8c\	-nież	.
4c\	.	8a/	4d\	.	.	8A/	po-	.
.	.	8f#/J	.	.	.	8F#/	-da-	.
*	*	*v	*v	*	*	*	*	*
!!LO:PB:g=original
=11	=11	=11	=11	=11	=11	=11	=11
(16B\LL	.	4g/	.	.	8.G/L	-run-	.
16c\	.	.	.	.	.	.	.
16B\	.	.	.	.	.	.	.
16A\JJ	.	.	.	.	16B/Jk	.	.
16G\LL	.	4b 4g/	.	.	8D/	-kiem	.
16A\	.	.	.	.	.	.	.
16G\	.	.	.	.	8r	.	.
16F#\JJ	.	.	.	.	.	.	.
16E\LL	.	4gg 4b\	.	.	8.d\	uj-	.
16F#\	.	.	.	.	.	.	.
16E\	.	.	.	.	.	.	.
16D\JJ	.	.	.	.	16d\	-mu-	.
=12	=12	=12	=12	=12	=12	=12	=12
*	*	*^	*	*	*	*	*
16C/LL	.	4.ee^/	8r	.	.	4.e\	-je-	.
16D/	.	.	.	.	.	.	.	.
16C/	.	.	16aLL 16e\	.	.	.	.	.
16BB/JJ)	.	.	16aJJ 16e\	.	.	.	.	.
8C'\L	.	.	8aL 8e\	.	.	.	.	.
8c'\	.	(16dd/LL	8a 8e\	.	.	16d\LL	-my	.
.	.	16cc/JJ)	.	.	.	16c\JJ	.	.
8c'\	.	(16b/LL	8d\	.	.	16B/LL	zwy-	.
.	.	16a/JJ)	.	.	.	16A/JJ	.	.
8c'\J	.	(16g/LL	8d\J	.	.	16G/LL	-kle	.
.	.	16f#/JJ)	.	.	.	16F#/JJ	.	.
!!LO:LB:g=original
=13	=13	=13	=13	=13	=13	=13	=13	=13
(16B\LL	.	8.g/L	4d\	.	.	8.GSSs/	pięk-	.
16c\	.	.	.	.	.	.	.	.
16B\	.	.	.	.	.	.	.	.
16A\JJ	.	16b/Jk	.	.	.	16B\	-ną	.
4B\)	.	(4dd/	4d\	.	.	8d\	płeć,	.
.	.	.	.	.	.	8r	.	.
4A\	.	4fn/)	4d\	.	.	8.d\	w_net	.
.	.	.	.	.	.	16d\	się	.
=14	=14	=14	=14	=14	=14	=14	=14	=14
4B 4G#X\	.	(16e/LL	4ryy	.	.	4.E/	spra-	.
.	.	16fn/	.	.	.	.	.	.
.	.	16e/	.	.	.	.	.	.
.	.	16d#X/JJ	.	.	.	.	.	.
(16G#\LL	.	2e/	4e\)	.	.	.	.	.
16A\	.	.	.	.	.	.	.	.
16G#\	.	.	.	.	.	8G#X/	-wię	.
16F#X\JJ	.	.	.	.	.	.	.	.
16G#\LL	.	.	8b\L	.	.	8B\	z_tym	.
16E\	.	.	.	.	.	.	.	.
16F#\	.	.	8dd\J	.	.	8d\	fra-	.
16G#\JJ)	.	.	.	.	.	.	.	.
!!LO:LB:g=original
=15	=15	=15	=15	=15	=15	=15	=15	=15
*^	*	*	*	*	*	*	*	*
2ryy	[2A\	.	(4cc#X/	2e\	.	.	(16.c#X\LL	-sun-	.
.	.	.	.	.	.	.	32d\k	.	.
.	.	.	.	.	.	.	16c#\	.	.
.	.	.	.	.	.	.	16B\JJ)	.	.
.	.	.	4a/)	.	.	.	8A/	-kiem	.
.	.	.	.	.	.	.	8r	.	.
4cn/	8A\L]	.	8a/L	4e-X\	.	.	8A/	i	.
.	8G\J	.	8b/J	.	.	.	8B/	po-	.
*v	*v	*	*	*	*	*	*	*	*
=16	=16	=16	=16	=16	=16	=16	=16	=16
4.A 4.F#\	.	4ccn/	(16d\LL	.	.	4.cn\	-da-	.
.	.	.	16en\	.	.	.	.	.
.	.	.	16d\	.	.	.	.	.
.	.	.	16c#X\JJ	.	.	.	.	.
.	.	8ryy	8d\)	.	.	.	.	.
8F#'\L	.	8aL 8d'/	8ryy	.	.	8A/	-rek	.
8G'\	.	8b 8d'/	4ryy	.	.	8.B\	bę-	.
8B'\J	.	8gJ 8d'/	.	.	.	.	.	.
.	.	.	.	.	.	16G/	-dziesz	.
*	*	*v	*v	*	*	*	*	*
=17	=17	=17	=17	=17	=17	=17	=17
2D 2DD;/	.	2dd 2d;/	.	sf	2D;/	mieć:	.
4r	.	4r	.	.	4r	.	.
!!LO:LB:g=original
=18	=18	=18	=18	=18	=18	=18	=18
8GG\L	.	(8d/L	.	p	8D/	Dam	.
16BL 16G'\	.	16g/L	.	.	16G/LL	ci	.
16BJJ 16G'\	.	16b/JJ	.	.	16B/JJ	.	.
8BL 8G'\	.	8dd'>/L)	.	.	8d\	ptasz-	.
8g> 8d 8B\	.	8cc#X'>/	.	.	8c#X\	-ka	.
8g> 8d 8B\	.	8ccn'>/	.	.	8cn\	ja-	.
8g>J 8d 8B\	.	8b'>/J	.	.	8B\	-kich	.
=19	=19	=19	=19	=19	=19	=19	=19
.	.	8qb/	.	.	8qB/	.	.
8C\L	.	(16a/LL	.	.	(16A/LL	ma-	.
.	.	16g#X/	.	.	16G#X/	.	.
16eL 16c\	.	16a/	.	.	16A/	.	.
16eJJ 16c\	.	16cc/JJ)	.	.	16c/JJ)	.	.
.	.	8qcc/	.	.	.	.	.
8cL 8A\	.	4.e/	.	.	4E/	-ło	.
8c 8A\	.	.	.	.	.	.	.
8c 8A\	.	.	.	.	4r	.	.
8cJ 8A\	.	(16e/LL	.	.	.	.	.
!	!	!LO:SIC:v:o=16g#/JJ)	!	!	!	!	!
.	.	16g/JJ)	.	.	.	.	.
=20	=20	=20	=20	=20	=20	=20	=20
*^	*	*	*	*	*	*	*
4c/	8A\L	.	(8f#/L	.	.	8F#/	ziem-	.
.	8D\	.	16e/L	.	.	16E/LL	-ski	.
.	.	.	16d/JJ)	.	.	16D/JJ	.	.
4c 4G/	8E\	.	(8g/L	.	.	8G/	glob	.
.	8D\	.	16f#/L	.	.	16F#/LL	ci-	.
.	.	.	16g/JJ)	.	.	16G/JJ	.	.
4d/	8F#\	.	(8.b/L	.	.	8.B/	-pa-	.
.	8D\J	.	.	.	.	.	.	.
.	.	.	16a/Jk)	.	.	16A/	-nie	.
*v	*v	*	*	*	*	*	*	*
!!LO:PB:g=original
=21	=21	=21	=21	=21	=21	=21	=21
*ped	*	*	*	*	*	*	*
8GG 8GGG/	.	(8g\L	.	f	4G/	zna	.
16dLL 16B 16G\	.	16b\L	.	.	.	.	.
16dJJ 16B 16G\	.	16dd\JJ	.	.	.	.	.
8dL 8B 8G\	.	8gg\L)	.	.	4r	.	.
*Xped	*	*	*	*	*	*	*
8e 8A 8G\	.	(16ee\L	.	.	.	.	.
.	.	16cc#X\JJ	.	.	.	.	.
8e 8A 8F#\	.	16dd/LL	.	.	4r	.	.
.	.	16ccn/	.	.	.	.	.
8dJ 8D\	.	16a/	.	.	.	.	.
.	.	16f#/JJ)	.	.	.	.	.
=22	=22	=22	=22	=22	=22	=22	=22
8GG/	.	(8d/L	.	p	8D/	ma	.
16BLL 16G\	.	16g/L	.	.	16G/LL	on	.
16BJJ 16G\	.	16b/JJ	.	.	16B/JJ	.	.
8BL 8G'\	.	8dd/L)	.	.	8d\	po-	.
8B 8G'\	.	8cc#X 8d'/	.	.	8c#X\	-stac	.
8B 8G'\	.	8ccn 8d'/	.	.	8cn\	o-	.
8BJ 8G'\	.	8bJ 8d'/	.	.	8B\	-ka-	.
=23	=23	=23	=23	=23	=23	=23	=23
.	.	8qb/	.	.	8qB/	.	.
8C\L	.	(16a/LL	.	.	(16A/LL	-za-	.
.	.	16g#X/	.	.	16G#X/	.	.
16eL 16c\	.	16a/	.	.	16A/	.	.
16eJJ 16c\	.	16cc/JJ)	.	.	16c/JJ)	.	.
8cL 8A'\	.	4.e/	.	.	4E/	-łą	.
8c 8A'\	.	.	.	.	.	.	.
8c 8A'\	.	.	.	.	4r	.	.
8cJ 8A'\	.	8e/	.	.	.	.	.
!!LO:LB:g=original
=24	=24	=24	=24	=24	=24	=24	=24
*	*	*^	*	*	*	*	*
8BB\L	.	(8f#t/L	2ryy	.	.	8F#/	i	.
8BJ 8D#X\	.	16e/L	.	.	.	16E/LL	wą-	.
.	.	16f#/JJ)	.	.	.	16F#/JJ	.	.
8BB\L	.	(8g/L	.	.	.	8G/	-si-	.
8BJ 8E\	.	16f#/L	.	.	.	16F#/LL	-ki	.
.	.	16g/JJ)	.	.	.	16G/JJ	.	.
8BB\L	.	8.b/L	8r	.	.	8.B/	czar-	.
8BJ 8F#\	.	.	8d#X\	.	.	.	.	.
.	.	16a/Jk	.	.	.	16A/	-ne	.
=25	=25	=25	=25	=25	=25	=25	=25	=25
8B 8E\	.	8g/	8e\	.	.	4G/	ma.	.
(8EL 8EE/	.	16gLL 16G/	8ryy	.	.	.	.	.
.	.	16gJJ 16G/	.	.	.	.	.	.
8D#X 8DD#X/	.	8gL 8f# 8G'/	2ryy	.	.	4r	.	.
8Dn 8DDn/	.	8g 8fn 8G'/	.	.	.	.	.	.
8C 8CC'/)	.	8g 8e 8c'/	.	.	.	4r	.	.
8E'/J	.	8g#XJ [8c'/	.	.	.	.	.	.
=26	=26	=26	=26	=26	=26	=26	=26	=26
.	.	8qb/	.	.	.	.	.	.
*^	*	*	*	*	*	*	*	*
8Fn'/L	4ryy	.	16.a/LL	8c\L]	.	.	8.A/	Nie	.
.	.	.	32g/k	.	.	.	.	.	.
8D'/J	.	.	16.a/	8fn\J	.	.	.	.	.
.	.	.	.	.	.	.	16B\	zwie-	.
.	.	.	32b/JJk	.	.	.	.	.	.
*ped	*	*	*	*	*	*	*	*	*
2C/	8C\L	.	(4.cc^/	4.e\	.	.	4.c\	-zio-	.
.	16.G\L	.	.	.	.	.	.	.	.
.	32G\JJk	.	.	.	.	.	.	.	.
.	8c\L	.	.	.	.	.	.	.	.
.	8E\J	.	8g 8c/)	8ryy	.	.	8G/	-ny	.
*Xped	*	*	*	*	*	*	*	*	*
!!LO:LB:g=original
=27	=27	=27	=27	=27	=27	=27	=27	=27	=27
.	.	.	8qb/	.	.	.	.	.	.
8Fn'\L	4ryy	.	16.a/LL	8c\L	.	.	8.A/	z_świa-	.
.	.	.	32g/k	.	.	.	.	.	.
8D'\J	.	.	16a/	8fn\J	.	.	.	.	.
.	.	.	16b/JJ	.	.	.	16B\	-ta	.
2C/	8C\L	.	(4.cc^/	4.e\	.	.	4.c\	kran-	.
.	16.G\L	.	.	.	.	.	.	.	.
.	32G\JJk	.	.	.	.	.	.	.	.
.	8c\L	.	.	.	.	.	.	.	.
.	8E\J	.	8g/)	8ryy	.	.	8G/	-ca	.
*v	*v	*	*	*	*	*	*	*	*
=28	=28	=28	=28	=28	=28	=28	=28	=28
8GL 8C\	.	8.ee/L	8e\L	.	.	8.e\	tu	.
16GL 16C'\	.	.	16e\L	.	.	.	.	.
16GJJ 16C'\	.	16dd/Jk	16e\JJ	.	.	16d\	trzy-	.
8GL 8C'\	.	8cc/L	8e'\L	.	.	8c\	-dzie-	.
8G#X 8C'\	.	8b/	8e'\	.	.	8B\	-stu	.
8A 8C'\	.	8a/	8e'\	.	.	8A/	się-	.
8BJ 8BB'\	.	8g/J	8e'\J	.	.	8G/	-ga	.
=29	=29	=29	=29	=29	=29	=29	=29	=29
8AA'/	.	(8.f#/L	8r	.	.	4F#/	lat,	.
4A^\	.	.	4e 4c\	.	.	.	.	.
.	.	32a/LL	.	.	.	.	.	.
.	.	32g/JJJ	.	.	.	.	.	.
.	.	4.f#/)	.	.	.	4r	.	.
(16.A\LL	.	.	8eL 8c\	.	.	.	.	.
32G#X\JJk	.	.	.	.	.	.	.	.
8A'\L)	.	.	8e 8c\	.	.	8.e\	do	.
8A'\J	.	8f#/	8eJ 8c\	.	.	.	.	.
.	.	.	.	.	.	16e\	ró-	.
!!LO:LB:g=original
=30	=30	=30	=30	=30	=30	=30	=30	=30
8AA'/	.	(8.f#/L	8r	.	.	(8.F#/L	-żań-	.
4A^\	.	.	4e-X 4c\	.	.	.	.	.
.	.	32a/LL	.	.	.	32A/LL	.	.
.	.	32g/JJJ	.	.	.	32G/JJJ)	.	.
.	.	4.f#/)	.	.	.	8F#/	-ca	.
(16.A\LL	.	.	8e-L 8c\	.	.	8r	.	.
32G#X\JJk	.	.	.	.	.	.	.	.
8A'\L)	.	.	8e- 8c\	.	.	8.e-X\	i	.
8A'\J	.	8f#/	8e-J 8c\	.	.	.	.	.
.	.	.	.	.	.	16e-\	do	.
*	*	*v	*v	*	*	*	*	*
=31	=31	=31	=31	=31	=31	=31	=31
8D 8DD/	.	8ddL 8f# 8c/	.	.	8F#/	tań-	.
16r	.	16r	.	.	16A/	-ca	.
16c 16A 16D\	.	16ddJk 16f# 16d/	.	f	16r	.	.
4c 4A 4D\	.	4dd 4f# 4d/	.	.	[4d^\	a	.
4r	.	4r	.	.	16d\LL]	.	.
.	.	.	.	.	16B\JJ	.	.
.	.	.	.	.	16c\LL	do	.
.	.	.	.	.	16e\JJ	.	.
=32	=32	=32	=32	=32	=32	=32	=32
2.r	.	2.r	.	.	16d\LL	kor-	.
.	.	.	.	.	16c\JJ	.	.
.	.	.	.	.	16A/LL	-da	.
.	.	.	.	.	16B/JJ	.	.
.	.	.	.	.	16c/LL	zaw-	.
.	.	.	.	.	16A/JJ	.	.
.	.	.	.	.	16F#/LL	-sze	.
.	.	.	.	.	16G/JJ	.	.
.	.	.	.	.	16B/LL	chwat!	.
.	.	.	.	.	16A/JJ	.	.
.	.	.	.	.	16F#/LL	Więc	.
.	.	.	.	.	16D/JJ	.	.
!!LO:PB:g=original
=33	=33	=33	=33	=33	=33	=33	=33
8GG/	.	(8d/L	.	p	8D/	dam	.
16fnLL 16B 16G\	.	16g/L	.	.	16G/LL	ci	.
16fJJ 16B 16G\	.	16b/JJ	.	.	16B/JJ	.	.
8fL 8B 8G\	.	8dd/L)	.	.	8d\	ptasz-	.
8f 8B 8G\	.	8cc#X'/	.	.	8c#X\	-ka	.
8f 8B 8G\	.	8ccn'/	.	.	8cn\	ja-	.
8fJ 8B 8G\	.	8b'/J	.	.	8B\	-kich	.
=34	=34	=34	=34	=34	=34	=34	=34
.	.	.	.	.	8qB/	.	.
8C\L	.	(8a\L	.	.	16A/LL	ma-	.
.	.	.	.	.	16G#X/	.	.
16eL 16c\	.	16cc\L	.	.	16A/	.	.
16eJJ 16c\	.	16ee\JJ)	.	.	16c/JJ	.	.
8e 8c\	.	8aa\	.	.	8E/	-ło	.
8BL 8BB'\	.	8gg#XL 8g#X'\	.	.	8r	.	.
8B-X 8BB-X'\	.	8ggn 8gn'\	.	.	4r	.	.
8GJ 8GG'\	.	8ccJ 8b-X 8e'\	.	.	.	.	.
=35	=35	=35	=35	=35	=35	=35	=35
8Fn 8FFn/	.	(8fn/L	.	.	8Fn/	ziem-	.
16ALL 16F'\	.	16a/L	.	.	16A\LL	-ski	.
16AJJ 16F'\	.	16cc/JJ)	.	.	16c\JJ	.	.
8AL 8F'\	.	8ffn/L	.	.	8.fn\	glob	.
8B-X 8G'\	.	8ee 8e'/	.	.	.	.	.
.	.	.	.	.	16e\	ci-	.
8c 8A'\	.	8ee-X 8e-X'/	.	.	8e-X\	-pa-	.
8e-XJ 8c'\	.	8cc'/J	.	.	8c\	-nie	.
!!LO:LB:g=original
=36	=36	=36	=36	=36	=36	=36	=36
.	.	8qcc/	.	.	.	.	.
8BB-X/	.	(16b-X/LL	.	.	4d\	zna,	.
.	.	16a/	.	.	.	.	.
(16fnLL 16d\	.	16b-/	.	.	.	.	.
16e-XJJ 16c\)	.	16cc/JJ)	.	.	.	.	.
8d 8B-X\	.	8dd/	.	.	4r	.	.
8B-L 8BB-'\	.	8ddL 8d'/	.	.	.	.	.
8A 8AA'\	.	8dd 8cc#X 8en 8d/	.	.	4r	.	.
8A-XJ 8AA-X'\	.	8ddJ 8ccn 8f#X 8d/	.	.	.	.	.
=37	=37	=37	=37	=37	=37	=37	=37
8G 8GG'/	.	16dd 16b 16g 16d'/	.	.	8d'\	ma	.
.	.	32r	.	.	.	.	.
.	.	32ee\KLL	.	.	.	.	.
16D\LL	2	16ff#\	.	.	8B'\	on	.
(16D\JJ	5	16gg\JJ	.	.	.	.	.
8dL 8B 8G\)	.	8.b^\L	.	.	(4d^\	pos-	.
8D'\J	.	.	.	.	.	.	.
.	.	16dd\Jk	.	.	.	.	.
.	.	8qdd/	.	.	.	.	.
8cL 8G 8E'\	.	(16cc\LL	.	.	16c\LL	.	.
.	.	16b\	.	.	16B\JJ)	.	.
8cJ 8F# 8D'\	.	16cc\	.	.	16c\LL	-tać	.
.	.	16a\JJ)	.	.	16A\JJ	.	.
=38	=38	=38	=38	=38	=38	=38	=38
8GG/	.	16dd\KL	.	.	8.B\	o-	.
.	.	32r	.	.	.	.	.
.	.	32ff#\KL	.	.	.	.	.
16D'\LL	.	16aa\	.	.	.	.	.
(16D\JJ	.	16gg\JJ	.	.	16d\	-ka-	.
8dL 8B 8G\)	.	8.b^\L	.	.	(4d^\	-za-	.
8D'\J	.	.	.	.	.	.	.
.	.	16dd\Jk	.	.	.	.	.
.	.	8qdd/	.	.	.	.	.
8cL 8G 8E'\	.	(16cc\LL	.	.	16c\LL	.	.
.	.	16b\	.	.	16B\JJ)	.	.
8cJ 8F# 8D'\	.	16cc\	.	.	16c\LL	-łą	.
.	.	16a\JJ)	.	.	16A\JJ	.	.
!!LO:LB:g=original
=39	=39	=39	=39	=39	=39	=39	=39
8GG/	.	16b\KL	3	.	8B\	i	.
.	.	32r	.	.	.	.	.
.	.	32cc#X\KL	2	.	.	.	.
8eL 8A 8G\	.	16ee\J	.	.	8c#X\	wą-	.
.	.	32r	.	.	.	.	.
.	.	32dd\Jkk	3	.	.	.	.
8d 8A 8F#\	.	16dd\KL	1	.	8.e\	-si-	.
.	.	32r	.	.	.	.	.
.	.	32ff#\KL	2	.	.	.	.
8d 8B 8Fn\	.	16aa\J	.	.	.	.	.
.	.	32r	.	.	16d\	-ki	.
.	.	32gg\Jkk	3	.	.	.	.
8c#X 8G 8E\	.	16gg\KL	1	.	8G/	czar-	.
.	.	32r	.	.	.	.	.
.	.	32bb\KL	2	.	.	.	.
8cnJ 8G 8E-X\	.	16ddd\J	.	.	8A/	-ne	.
.	.	32r	.	.	.	.	.
.	.	32cccn\Jkk	.	.	.	.	.
=40	=40	=40	=40	=40	=40	=40	=40
8d 8G 8D\	.	8bb'\	.	.	8B\	ma,	.
8D 8DD/	.	16.aaLL 16.cc\	.	.	16.A/LL	ci-	.
.	.	32bbJJk 32dd\	.	.	32B/JJk	.	.
8r	.	(4aa (4cc^\	.	.	4A^/	-pa-	.
8F# 8D'\	.	.	.	.	.	.	.
8G 8D 8GG'\	.	8gg 8b\))	.	.	8G/	-nie.	.
8r	.	8r	.	.	8r	.	.
!!LO:LB:g=original
=41||	=41||	=41||	=41||	=41||	=41||	=41||	=41||
8AAL 8AAA\	.	8ggL 8cc#X 8g'\	.	ff	2.r	.	.
16eL 16c#X 16A\	.	[8ggJ [8cc# [8g^^\	.	.	.	.	.
16eJJ 16c# 16A\	.	.	.	.	.	.	.
8eL 8c# 8A\	.	16.gg]LL 16.cc#] 16.g\]	.	.	.	.	.
.	.	32ee\k	.	.	.	.	.
8f# 8d 8A\	.	16.dd\	.	.	.	.	.
!	!	!	!	!LO:HP:a	!	!	!
.	.	32ff#\JJk	.	>	.	.	.
8e 8A 8G\	.	16.ee\LL	.	.	.	.	.
.	.	32cc#\k	.	.	.	.	.
8dJ 8A 8F#\	.	16.b\	.	.	.	.	.
.	.	32dd\JJk	.	.	.	.	.
=42	=42	=42	=42	=42	=42	=42	=42
8c#XL 8A 8E\	.	16.cc#X/LL	.	.	2.r	.	.
.	.	32a/k	.	.	.	.	.
8B 8E 8D\	.	16.g#X/	.	.	.	.	.
.	.	32b/JJk	.	]	.	.	.
8AJ 8E 8C#X\	.	(>4.a^>/	.	.	.	.	.
16AA'/LL	.	.	.	.	.	.	.
16AA'/JJ	.	.	.	.	.	.	.
8A\L	.	.	.	.	.	.	.
8AJ 8E 8AA\	.	8gn 8c#X/)	.	.	.	.	.
=43	=43	=43	=43	=43	=43	=43	=43
.	.	8qg/	.	.	.	.	.
8A'\L	.	16.f#/LL	.	p	8.F#/	Wy-	.
.	.	32e/k	.	.	.	.	.
8dJ 8A'\	.	16f#/	.	.	.	.	.
.	.	16g/JJ	.	.	16G/	-cho-	.
.	.	8qb/	.	.	.	.	.
8F#'\L	.	16.a/LL	.	.	8.A/	-wa-	.
.	.	32g#X/k	.	.	.	.	.
8dJ 8A'\	.	16a/	.	.	.	.	.
.	.	16b/JJ	.	.	16B\	-ny	.
8D'\L	.	16.cc#X\LL	.	.	8.c#X\	za-	.
.	.	32dd\k	.	.	.	.	.
8AJ 8F#'\	.	16.ee\	.	.	.	.	.
.	.	.	.	.	16d\	-cnie,	.
.	.	32ff#\JJk	.	.	.	.	.
!!LO:PB:g=original
=44	=44	=44	=44	=44	=44	=44	=44
8C#X'\L	.	16.aa\LL	.	.	(4.f#\	skro-	p
.	.	32gg\k	.	.	.	.	.
16AL 16E'\	.	16.ee\	.	.	.	.	.
16AJJ 16E'\	.	.	.	.	.	.	.
.	.	32cc#X\JJk	.	.	.	.	.
8A 8E'\	.	8a/	.	.	.	.	.
8eL 8c#X'\	.	16a/LL	.	<	8e\)	.	.
.	.	16b/JJ	.	.	.	.	.
8e 8A'\	.	16cc#\LL	.	.	8A/	-mnie,	.
.	.	16dd\	.	.	.	.	.
8c#J 8E'\	.	16ee\	.	.	8r	.	.
.	.	16ff#\JJ	.	[[	.	.	.
=45	=45	=45	=45	=45	=45	=45	=45
*ped	*	*	*	*	*	*	*
8BB-X 8BBB-X/	.	8gg'\L	.	ff	2.r	.	.
16dLL 16B-X 16G 16D\	.	[8ggJ [8dd [8g^^\	.	.	.	.	.
16dJJ 16B- 16G 16D\	.	.	.	.	.	.	.
*Xped	*	*	*	*	*	*	*
8d 8B- 8G 8D\	.	16.gg]LL 16.dd] 16.g\]	.	.	.	.	.
!	!	!	!	!LO:HP:a	!	!	!
.	.	32ee\k	.	>	.	.	.
8f#L 8cn 8A\	.	16.dd#X\	.	.	.	.	.
.	.	32ff#\JJk	.	.	.	.	.
8e 8B-X 8G\	.	16.ee\LL	.	.	.	.	.
.	.	32cc\k	.	.	.	.	.
8dJ 8G#X 8Fn\	.	16.bn\	.	.	.	.	.
.	.	32ddn\JJk	.	.	.	.	.
=46	=46	=46	=46	=46	=46	=46	=46
*	*	*^	*	*	*	*	*
8c#XL 8A 8E\	.	16.cc#X/LL	4ryy	.	.	2.r	.	.
.	.	32a/k	.	.	.	.	.	.
8B 8Fn 8D\	.	16.g#X/	.	.	]	.	.	.
.	.	32b/JJk	.	.	.	.	.	.
8AJ 8E 8C#X\	.	(4.a^^/	8r	.	.	.	.	.
16ELL 16AA'/	.	.	16c#X\LL	.	.	.	.	.
16EJJ 16AA'/	.	.	16c#\JJ	.	.	.	.	.
8AL 8E'\	.	.	8d\L	.	.	.	.	.
8AA\J	.	8gn/)	8eJ 8c#\	.	.	.	.	.
*	*	*v	*v	*	*	*	*	*
!!LO:LB:g=original
=47	=47	=47	=47	=47	=47	=47	=47
.	.	8qg/	.	.	.	.	.
8AA#X'\L	.	16.f#/LL	.	p	8.F#/	zna	.
.	.	32e#X/k	.	.	.	.	.
8c#XJ 8F#'\	.	16f#/	.	.	.	.	.
.	.	16g#X/JJ	.	.	16G#X/	co	.
8C#X'\L	.	16.a#X\LL	.	.	8A#X/	fes-	.
.	.	32b\k	.	.	.	.	.
8A#XJ 8F#'\	.	16.cc#X\	.	.	8c#X\	-tum	.
.	.	32dd\JJk	.	.	.	.	.
8FF#'\L	.	16.ff#\LL	.	.	8.f#\	a	.
.	.	32ee\k	.	.	.	.	.
8A#J 8F#'\	.	16.dd\	.	.	.	.	.
.	.	.	.	.	16e\	co	.
.	.	32cc#\JJk	.	.	.	.	.
=48	=48	=48	=48	=48	=48	=48	=48
8BB'/	.	(16ee\LL	.	.	4d\	post,	.
.	.	16dd\JJ)	.	.	.	.	.
.	.	8qee/	.	.	.	.	.
16BLL 16F#'\	.	16.dd\LL	.	.	.	.	.
16BJJ 16F#'\	.	.	.	.	.	.	.
.	.	32cc#X\JJk	.	.	.	.	.
8BL 8F#'\	.	(4.dd\	.	.	4r	.	.
16dL 16B'\	.	.	.	.	.	.	.
16dJJ 16B'\	.	.	.	.	.	.	.
8d 8B'\	.	.	.	.	4r	.	.
8B\	.	8dd#X\)	.	.	.	.	.
!!LO:LB:g=original
=49	=49	=49	=49	=49	=49	=49	=49
*^	*	*^	*	*	*	*	*
.	.	.	.	8qff#/	.	.	.	.	.
!	!	!	!	!	!	!LO:DY:t=p dolce	!LO:TX:a:i:t=dolce	!	!
8c'\L	4ryy	.	16ee/LL	8ccn\L	.	p	16e\LL	z_dziob-	.
.	.	.	16ddn/	.	.	.	16d\JJ	.	.
8dJ 8A'\	.	.	16ee/	8cc\J	.	.	16c\LL	-ka	.
.	.	.	16ff#/JJ	.	.	.	16A\JJ	.	.
8r	4.G^^>\	.	(4.gg^^/	4.b\	.	.	4.B\	jest	.
16.d/LL	.	.	.	.	.	.	.	.	.
32d/JJk	.	.	.	.	.	.	.	.	.
4g^^/	.	.	.	.	.	.	.	.	.
.	8B\	.	8dd/)	8ryy	.	.	8d\	po-	.
=50	=50	=50	=50	=50	=50	=50	=50	=50	=50
.	.	.	8qff#/	.	.	.	.	.	.
8c'\L	4ryy	.	16ee/LL	8cc\L	.	.	16e\LL	-dob-	.
.	.	.	16dd/	.	.	.	16d\JJ	.	.
8dJ 8A'\	.	.	16ee/	8cc\J	.	.	16c\LL	-ny	.
.	.	.	16ff#/JJ	.	.	.	16A\JJ	.	.
8r	4.G^^>\	.	(4.gg^^/	4.b\	.	.	4.B\	do	.
16.d/LL	.	.	.	.	.	.	.	.	.
32d/JJk	.	.	.	.	.	.	.	.	.
4g^^/	.	.	.	.	.	.	.	.	.
.	8d\	.	8dd/)	8ryy	.	.	8G/	mnie,	.
*v	*v	*	*	*	*	*	*	*	*
*	*	*v	*v	*	*	*	*	*
=51	=51	=51	=51	=51	=51	=51	=51
8dL 8G'\	.	[8bbL [>8b^\	.	.	8.B^>/	ten	.
16dL 16G'\	.	16bb]L 16b\]	.	.	.	.	.
16dJJ 16G'\	.	16aaJJ 16b\	.	.	16A/	sam	.
8dL 8G'\	.	8ggL 8b'\	.	.	8G/	ruch,	.
8d#X 8G'\	.	8ff# 8b'\	.	.	8B\	ten	.
8e 8G'\	.	8ee 8b'\	.	.	8e\	pra-	.
8f#J 8F#'\	.	8ddnJ 8b'\	.	.	8d\	-wie	.
!!LO:LB:g=original
=52	=52	=52	=52	=52	=52	=52	=52
*	*	*^	*	*	*	*	*
8E'\	.	(8.cc#X/L	8r	.	.	4c#X\	wzrost.	.
4e\	.	.	4b 4g^\	.	.	.	.	.
.	.	32ee/LL	.	.	.	.	.	.
.	.	32dd/JJJ	.	.	.	.	.	.
.	.	4.cc#/)	.	.	.	4r	.	.
(16.e\LL	.	.	16bLL 16g\	.	.	.	.	.
.	.	.	16bJJ 16g\	.	.	.	.	.
32d#X\JJk	.	.	.	.	.	.	.	.
8e\L)	.	.	8bL 8g\	.	.	4r	.	.
8e'\J	.	8cc#/	8bJ 8g\	.	.	.	.	.
=53	=53	=53	=53	=53	=53	=53	=53	=53
8E'\	.	(8.cc#X/L	8r	.	.	2C#X/	Tak!	.
4e^\	.	.	4a#X 4g\	.	.	.	.	.
.	.	32ee/LL	.	.	.	.	.	.
.	.	32dd/JJJ	.	.	.	.	.	.
.	.	4.cc#/)	.	.	.	.	.	.
(16.e\LL	.	.	16a#LL 16g\	.	.	.	.	.
.	.	.	16a#JJ 16g\	.	.	.	.	.
32d#X\JJk	.	.	.	.	.	.	.	.
8e'\L)	.	.	8a#L 8g\	.	.	4r	.	.
8e'\J	.	8r	8a#J 8g\	.	.	.	.	.
*	*	*v	*v	*	*	*	*	*
=54	=54	=54	=54	=54	=54	=54	=54
.	.	(>32qqb/L	2	p	.	.	.
.	.	32qqdd/J	1	.	.	.	.
8D\L	.	8ddd'\L)	.	.	8D/	Więc	.
(16G\L	.	(16bb\L	.	.	16G/LL	ci-	.
16B\JJ	.	16gg\JJ	.	.	16B/JJ	.	.
8d'\L)	.	8dd'\L)	.	.	8d\	-pa-	.
8c#X'\	.	8ee 8a'\	.	.	8c#X\	-nie	.
8cn'\	.	8ff# 8dd 8a'\	.	.	8cn\	to	.
8BJ 8BB'\	.	8ggJ 8dd 8g'\	.	.	8B\	nie	.
!!LO:PB:g=original
=55	=55	=55	=55	=55	=55	=55	=55
.	.	.	.	.	8qB/	.	.
(16ALL 16C\	1	(16aa\LL	.	<	(16A/LL	frasz-	.
16G#X\	3	16bb\	.	.	16G#X/	.	.
16A\	2	16ccc\	.	.	16A/	.	.
16c\JJ)	.	16ddd\JJ	.	[	16c/JJ)	.	.
8C\L	.	8.eee\L)	.	.	4E/	-ka	.
16eL 16A'\	.	.	.	>	.	.	.
16eJJ 16A'\	.	(32ccc\LL	.	.	.	.	.
.	.	32aa\JJJ)	.	]	.	.	.
8cL 8A'\	.	8ee\L	.	.	4r	.	.
!LO:SIC:v:o=8cJ 8A 8G#'\	!	!	!	!	!	!	!
8cJ 8A 8G'\	.	(8ee-X\J	.	.	.	.	.
=56	=56	=56	=56	=56	=56	=56	=56
8cL 8A 8F#\	.	8dd\L)	.	<	8F#/	to	.
8D\J	.	(16aa\L	.	.	16E/LL	pod-	.
.	.	16ccc\JJ	.	.	16D/JJ	.	.
8BL 8G\	.	8bb\L)	.	.	8G/	-po-	.
8D\J	.	(16gg\L	.	.	16F#/LL	-ra	.
.	.	16ee\JJ	.	.	16G/JJ	.	.
8dL 8F#\	.	8dd\L)	.	.	8.B/	przy-	.
8D\J	.	(16cc\L	.	[	.	.	.
.	.	16a\JJ)	.	.	16A/	-szłych	.
=57	=57	=57	=57	=57	=57	=57	=57
*ped	*	*	*	*	*	*	*
8GG/	.	(8g\L	.	f	4G/	dni	.
16dLL 16B 16G\	.	16b\L	.	.	.	.	.
16dJJ 16B 16G\	.	16dd\JJ	.	.	.	.	.
8dL 8B 8G\	.	8gg\L)	.	.	4r	.	.
*Xped	*	*	*	*	*	*	*
8e 8A 8G\	.	16ee\L	.	.	.	.	.
.	.	16cc#X\JJ	.	.	.	.	.
8d 8A 8F#\	.	16dd/LL	.	.	4r	.	.
.	.	16ccn/	.	.	.	.	.
8AJ 8D 8C\	.	16a/	.	.	.	.	.
.	.	16f#/JJ	.	.	.	.	.
!!LO:LB:g=original
=58	=58	=58	=58	=58	=58	=58	=58
8BB 8BBB/	.	(8d/L	.	fp	8D/	by	.
16BLL 16G\	.	16g/L	.	.	16G/LL	ta-	.
16BJJ 16G\	.	16b/JJ	.	.	16B/JJ	.	.
8BL 8G\	.	8dd/L)	.	.	8d\	-kie-	.
8B 8G\	.	8cc#X 8d'/	.	.	8c#X\	-go	.
8B 8G\	.	8ccn 8d'/	.	.	8cn\	zło-	.
8BJ 8G\	.	8bJ 8d'/	.	.	8B\	-wić	.
=59	=59	=59	=59	=59	=59	=59	=59
.	.	8qb/	.	.	8qB/	.	.
8C\L	.	(16a/LL	.	.	(16A/LL	ptasz-	.
.	.	16g#X/	.	.	16G#X/	.	.
16eL 16c\	.	16a/	.	.	16A/	.	.
16eJJ 16c\	.	16cc/JJ)	.	.	16c/JJ)	.	.
8cL 8A\	.	4.e^/	.	.	4E/	-ka	.
8c 8A\	.	.	.	.	.	.	.
8c 8A\	.	.	.	.	4r	.	.
8cJ 8A\	.	8e/	.	.	.	.	.
=60	=60	=60	=60	=60	=60	=60	=60
*	*	*^	*	*	*	*	*
8BB'\L	.	(8f#t/L	2ryy	.	.	8F#/	oj	.
8BJ 8D#X'\	.	16e/L	.	.	.	16E/LL	nie-	.
.	.	16f#/JJ)	.	.	.	16F#/JJ	.	.
8BB'\L	.	(8g/L	.	.	.	8G/	-jed-	.
8BJ 8E'\	.	16f#/L	.	.	.	16F#/LL	-no	.
.	.	16g/JJ)	.	.	.	16G/JJ	.	.
8BB'\L	.	(8.b^/L	8r	.	.	8.B/	dziew-	.
(8BJ 8F#'\	.	.	8d#X\	.	.	.	.	.
.	.	16a/Jk)	.	.	.	16A/	-cze	.
!!LO:LB:g=original
=61	=61	=61	=61	=61	=61	=61	=61	=61
8B 8E\)	.	8g/	8e\	.	.	4G/	drży.	.
(8EL 8EE/	.	16gLL 16G'/	8ryy	.	.	.	.	.
.	.	16gJJ 16G'/	.	.	.	.	.	.
8D#X 8DD#X/	.	8gL 8f# 8G'/	2ryy	.	.	4r	.	.
8Dn 8DDn'/	.	8g 8fn 8G'/	.	.	.	.	.	.
8C 8CC'/)	.	8g 8e 8c'/	.	.	.	4r	.	.
8E'/J	.	(8g#XJ 8c/	.	.	.	.	.	.
=62	=62	=62	=62	=62	=62	=62	=62	=62
.	.	8qb/	.	.	.	.	.	.
8Fn'\L	.	16.a/LL	8c\L)	.	.	8.A/	Nie	.
.	.	32gn/k	.	.	.	.	.	.
8D'\J	.	16.a/	8fn\J	.	.	.	.	.
.	.	.	.	.	.	16B\	zwie-	.
.	.	32b/JJk	.	.	.	.	.	.
*ped	*	*	*	*	*	*	*	*
8C\L	.	(4.cc^/	4.e\	.	.	4.c\	-zio-	.
16.G\L	.	.	.	.	.	.	.	.
32G\JJk	.	.	.	.	.	.	.	.
8c\L	.	.	.	.	.	.	.	.
8E\J	.	8g 8c/)	8ryy	.	.	8G/	-ny	.
*Xped	*	*	*	*	*	*	*	*
=63	=63	=63	=63	=63	=63	=63	=63	=63
.	.	8qb/	.	.	.	.	.	.
8Fn'\L	.	16.a/LL	8c\L	.	.	8.A/	z_świa-	.
.	.	32g/k	.	.	.	.	.	.
8D'\J	.	16a/	8fn\J	.	.	.	.	.
.	.	16b/JJ	.	.	.	16B\	-ta	.
8C\L	.	(4.cc^/	4.e\	.	.	4.c\	krań-	.
16.G\L	.	.	.	.	.	.	.	.
32G\JJk	.	.	.	.	.	.	.	.
8c\L	.	.	.	.	.	.	.	.
8G\J	.	8g/)	8ryy	.	.	8G/	-ca	.
!!LO:LB:g=original
=64	=64	=64	=64	=64	=64	=64	=64	=64
8GL 8C^\	.	8.ee^/L	8e\L	.	.	8.e^\	tu	.
16GL 16C'\	.	.	16e\L	.	.	.	.	.
16GJJ 16C'\	.	16dd/k	16e\JJ	.	.	16d\	trzy-	.
8GL 8C'\	.	8cc/	8e'\L	.	.	8c\	-dzie-	.
8G#X 8C'\	.	8b/	8e'\	.	.	8B\	-stu	.
8A 8C'\	.	8a/	8e'\	.	.	8A/	się-	.
8BJ 8BB'\	.	8g/J	8e'\J	.	.	8G/	-ga	.
=65	=65	=65	=65	=65	=65	=65	=65	=65
8AA'/	.	(8.f#/L	8r	.	.	4F#/	lat,	.
4A\	.	.	4e 4c^\	.	.	.	.	.
.	.	32a/LL	.	.	.	.	.	.
.	.	32g/JJJ	.	.	.	.	.	.
.	.	4.f#/)	.	.	.	4r	.	.
(16.A\LL	.	.	8eL 8c\	.	.	.	.	.
32G#X\JJk	.	.	.	.	.	.	.	.
8A\L)	.	.	8e 8c\	.	.	8.e\	do	.
8A'\J	.	8f#/	8eJ 8c\	.	.	.	.	.
.	.	.	.	.	.	16e\	ró-	.
=66	=66	=66	=66	=66	=66	=66	=66	=66
8AA'/	.	(8.f#/L	8r	.	.	4F#/	-zań-	.
4A\	.	.	4e-X 4c^\	.	.	.	.	.
.	.	32a/LL	.	.	.	.	.	.
.	.	32g/JJJ	.	.	.	.	.	.
.	.	4.f#/)	.	.	.	8F#/	-ca	.
(16.A\LL	.	.	8e-L 8c\	.	.	8r	.	.
32G#X\JJk	.	.	.	.	.	.	.	.
8A\L)	.	.	8e- 8c\	.	.	8.e-X\	i	.
8A'\J	.	8f#/	8e-J 8c\	.	.	.	.	.
.	.	.	.	.	.	16e-\	do	.
*	*	*v	*v	*	*	*	*	*
!!LO:PB:g=original
=67	=67	=67	=67	=67	=67	=67	=67
8D 8DD/	.	8ddL 8f# 8c/	.	.	8F#/	tań-	.
16r	.	16r	.	.	16A/	-ca	.
16c 16A 16D\	.	16ddJk 16f# 16d/	.	f	16r	.	.
4c 4A 4D\	.	4dd 4f# 4d/	.	.	[4d^\	a	.
4r	.	4r	.	.	16d\LL]	.	.
.	.	.	.	.	16B\JJ	.	.
.	.	.	.	.	16c\LL	do	.
.	.	.	.	.	16e\JJ	.	.
=68	=68	=68	=68	=68	=68	=68	=68
2.r	.	2.r	.	.	16d\LL	kor-	.
.	.	.	.	.	16c\JJ	.	.
.	.	.	.	.	16A/LL	-da	.
.	.	.	.	.	16B/JJ	.	.
.	.	.	.	.	16c/LL	zaw-	.
.	.	.	.	.	16A/JJ	.	.
.	.	.	.	.	16F#/LL	-sze	.
.	.	.	.	.	16G/JJ	.	.
.	.	.	.	.	16B/LL	chwat!	.
.	.	.	.	.	16A/JJ	.	.
.	.	.	.	.	16F#/LL	Więc	.
.	.	.	.	.	16D/JJ	.	.
=69	=69	=69	=69	=69	=69	=69	=69
8GG/	.	(8d/L	.	p	8D/	dam	.
16fnLL 16B 16G\	.	16g/L	.	.	16G/LL	ci	.
16fJJ 16B 16G\	.	16b/JJ	.	.	16B/JJ	.	.
8fL 8B 8G\	.	8dd/L)	.	.	8d\	ptasz-	.
8f 8B 8G\	.	8cc#X'/	.	.	8c#X\	-ka	.
8f 8B 8G\	.	8ccn'/	.	.	8cn\	ja-	.
8fJ 8B 8G\	.	8b'/J	.	.	8B\	-kich	.
!!LO:LB:g=original
=70	=70	=70	=70	=70	=70	=70	=70
.	.	.	.	.	8qB/	.	.
8C'\L	.	(8a\L	.	.	(16A/LL	ma-	.
.	.	.	.	.	16G#X/	.	.
16eL 16c'\	.	16cc\L	.	.	16A/	.	.
16eJJ 16c'\	.	16ee\JJ	.	.	16c/JJ)	.	.
8e 8c\	.	8aa\)	.	.	8E/	-ło	.
8BL 8BB'\	.	8gg#XL 8g#X'\	.	.	8r	.	.
8B-X 8BB-X'\	.	8ggn 8gn'\	.	.	4r	.	.
8GJ 8GG'\	.	8ccJ 8b-X 8e'\	.	.	.	.	.
=71	=71	=71	=71	=71	=71	=71	=71
8Fn 8FFn/	.	(8fn/L	.	.	8Fn/	ziem-	.
16ALL 16F'\	.	16a/L	.	.	16A\LL	-ski	.
16AJJ 16F'\	.	16cc/JJ	.	.	16c\JJ	.	.
8AL 8F'\	.	8ffn'/L)	.	.	8.fn\	glob	.
8B-X 8G'\	.	8ee 8e'/	.	.	.	.	.
.	.	.	.	.	16e\	ci-	.
8c 8A'\	.	8ee-X 8e-X'/	.	.	8e-X\	-pa-	.
8e-XJ 8c\	.	8cc'/J	.	.	8c\	-nie	.
=72	=72	=72	=72	=72	=72	=72	=72
.	.	8qcc/	.	.	.	.	.
8BB-X/	.	(16b-X/LL	.	.	4d\	zna	.
.	.	16a/	.	.	.	.	.
(16fnLL 16d\	.	16b-/	.	.	.	.	.
16e-JJ 16c\	.	16cc/JJ	.	.	.	.	.
8d 8B-X\)	.	8dd/)	.	.	4r	.	.
8B-L 8BB-'\	.	8ddL 8d/	.	.	.	.	.
8A 8AA'\	.	8dd 8cc#X 8en 8d/	.	.	4r	.	.
8A-XJ 8AA-X'\	.	8ddJ 8ccn 8f#X 8d/	.	.	.	.	.
!!LO:LB:g=original
=73	=73	=73	=73	=73	=73	=73	=73
8G 8GG\	.	16dd 16b 16g 16d/	.	.	8d'\	ma	.
!	!	!LO:N:vis=16	!	!	!	!	!
.	.	32r	.	.	.	.	.
.	.	32ee\KLL	.	.	.	.	.
16D'\LL	.	16ff#\	.	.	8B'\	on	.
(16D\JJ	.	16gg\JJ	.	.	.	.	.
8dL 8B 8G\)	.	8.b^\L	.	.	(4d^\	po-	.
8D'\J	.	.	.	.	.	.	.
.	.	16dd\Jk	.	.	.	.	.
.	.	8qdd/	.	.	.	.	.
8cL 8G 8E'\	.	(16cc\LL	.	.	16c\LL	.	.
.	.	16b\	.	.	16B\JJ)	.	.
8cJ 8F# 8D'\	.	16cc\	.	.	16c\LL	-stać	.
.	.	16a\JJ)	.	.	16A\JJ	.	.
=74	=74	=74	=74	=74	=74	=74	=74
8GG/	.	16dd\KL	.	.	8.B\	o-	.
.	.	32r	.	.	.	.	.
.	.	32ff#\KL	.	.	.	.	.
16D'\LL	.	16aa\	.	.	.	.	.
(16D\JJ	.	16gg\JJ	.	.	16d\	-ka-	.
8dL 8B 8G\)	.	8.b^\L	.	.	(4d^\	-za-	.
8D'\J	.	.	.	.	.	.	.
.	.	16dd\Jk	.	.	.	.	.
.	.	8qdd/	.	.	.	.	.
8cL 8G 8E'\	.	(16cc\LL	.	.	16c\LL	.	.
.	.	16b\	.	.	16B\JJ)	.	.
8cJ 8F# 8D'\	.	16cc\	.	.	16c\LL	-łą	.
.	.	16a\JJ)	.	.	16A\JJ	.	.
!!LO:LB:g=original
=75	=75	=75	=75	=75	=75	=75	=75
8GG/	.	16b\KL	.	.	8.B\	i	.
.	.	32r	.	.	.	.	.
.	.	32cc#X\KL	.	.	.	.	.
8eL 8A 8G\	.	16ee\J	.	.	.	.	.
.	.	32r	.	.	16c#X\	wą-	.
.	.	32dd\Jkk	.	.	.	.	.
8d 8A 8F#\	.	16dd\KL	.	.	8e\	-si-	.
.	.	32r	.	.	.	.	.
.	.	32ff#\KL	.	.	.	.	.
8d 8B 8Fn\	.	16aa\J	.	.	8d\	-ki	.
.	.	32r	.	.	.	.	.
.	.	32gg\Jkk	.	.	.	.	.
8c#X 8G 8E\	.	16gg\KL	.	.	8G/	czar-	.
.	.	32r	.	.	.	.	.
.	.	32bb\KL	.	.	.	.	.
8cnJ 8G 8E-X\	.	16ddd\J	.	.	8A/	-ne	.
.	.	32r	.	.	.	.	.
.	.	32cccn\Jkk	.	.	.	.	.
=76	=76	=76	=76	=76	=76	=76	=76
8B 8G 8D\	.	8bb\	.	.	8B/	ma,	.
(16f#\LL	.	(16ff#\LL	.	.	16.A/LL	ci-	.
16g\JJ	.	16gg\JJ	.	.	.	.	.
.	.	.	.	.	32B/JJk	.	.
8d\)	.	8dd\)	.	.	(4.d\	-pa-	.
8r	.	8r	.	.	.	.	.
4D 4DD/	.	4f# 4d 4A/	.	.	.	.	.
.	.	.	.	.	16c\LL	.	.
.	.	.	.	.	16A\JJ)	.	.
!!LO:PB:g=original
=77	=77	=77	=77	=77	=77	=77	=77
*	*	*^	*	*	*	*	*
8GG 8GGG/	.	8gL 8B/	4ryy	.	.	4G/	-nie.	.
8r	.	16g'/L	.	.	p	.	.	.
.	.	16g'/JJ	.	.	.	.	.	.
8r	.	8r	[2g^\	.	.	8r	.	.
8B'\L	.	16dd#X'/LL	.	.	.	8d#X\	Jak	.
.	.	16dd#'/JJ	.	.	.	.	.	.
8c'\	.	8ee'/L	.	.	.	8e\	wi-	.
8A#X'\J	.	8cc#X'/J	.	.	.	8c#X\	-dzisz	.
=78	=78	=78	=78	=78	=78	=78	=78	=78
!	!	!LO:N:vis=4.	!	!	!	!	!	!
4.B\	.	4dd/	8g\L]	.	.	4d\	mnie	.
.	.	.	16d'\L	.	.	.	.	.
.	.	.	16d'\JJ	.	.	.	.	.
.	.	8r	[2d^\	.	.	8r	.	.
8G#X'\L	.	16b'</LL	.	.	.	8B\	ten	.
.	.	16b'</JJ	.	.	.	.	.	.
8A'\	.	8cc'</L	.	.	.	8.c\	wzrost	.
8F#J 8C'\	.	8a'</J	.	.	.	.	.	.
.	.	.	.	.	.	16F#/	i	.
=79	=79	=79	=79	=79	=79	=79	=79	=79
4.G 4.BB\	.	4.dd/	8d\L]	.	.	4G/	ruch,	.
.	.	.	16g'\L	.	.	.	.	.
.	.	.	16g'\JJ	.	.	.	.	.
.	.	.	[2g^\	.	.	8r	.	.
8GL 8BB'\	.	16dd#X'/LL	.	.	.	8d#X\	jak	.
.	.	16dd#'/JJ	.	.	.	.	.	.
8G 8C'\	.	8ee'/L	.	.	.	8.e\	wi-	.
8GJ 8AA#X'\	.	8cc#X'/J	.	.	.	.	.	.
.	.	.	.	.	.	16c#X\	-dzisz	.
!!LO:LB:g=original
=80	=80	=80	=80	=80	=80	=80	=80	=80
4.G 4.BB\	.	4.dd/	8g\L]	.	.	4d\	mnie	.
.	.	.	16d'\L	.	.	.	.	.
.	.	.	16d'\JJ	.	.	.	.	.
.	.	.	8d^\	.	.	8r	.	.
8G#XL 8GG#X'/	.	8bL 8fn 8d/	8ryy	.	.	8B\	to	.
8A 8AA'/	.	8cc 8f#X 8d/	4ryy	.	.	8.c\	tę-	.
8C'/J	.	8aJ 8f# 8d/	.	.	.	.	.	.
.	.	.	.	.	.	16A/	-gi	.
*	*	*v	*v	*	*	*	*	*
=81	=81	=81	=81	=81	=81	=81	=81
16BB/KL	.	16ddKL 16g 16d/	.	.	4d\	zuch!	.
32r	.	32r	.	.	.	.	.
32C/KL	.	32c/KL	.	.	.	.	.
16D/J	.	16d/J	.	.	.	.	.
32r	.	32r	.	.	.	.	.
32E/Jkk	.	32e/Jkk	.	.	.	.	.
16D\KL	.	16d/KL	.	.	4r	.	.
32r	.	32r	.	.	.	.	.
!	!	!LO:TX:b:Bi:t=cre_scen_do:problem=dynamics with extension lines	!	!LO:HP:t=cre_scen_do	!	!	!
32C#X\KL	.	32c#X/KL	.	<	.	.	.
16D\J	.	16d/J	.	.	.	.	.
32r	.	32r	.	.	.	.	.
32E\Jkk	.	32e/Jkk	.	.	.	.	.
16F#\KL	.	16f#/KL	.	.	4r	.	.
32r	.	32r	.	.	.	.	.
32G\KL	.	32g/KL	.	.	.	.	.
16A\J	.	16a/J	.	.	.	.	.
32r	.	32r	.	.	.	.	.
32B\Jkk	.	32b/Jkk	.	.	.	.	.
!!LO:LB:g=original
=82	=82	=82	=82	=82	=82	=82	=82
16c\KL	.	16cc/KL	.	.	4rB	.	.
32r	.	32r	.	.	.	.	.
32B\KL	.	32b/KL	.	.	.	.	.
16A\J	.	16a/J	.	.	.	.	.
32r	.	32r	.	.	.	.	.
32G#X\Jkk	.	32g#X/Jkk	.	.	.	.	.
16A\KL	.	16a/KL	.	.	4r	.	.
32r	.	32r	.	.	.	.	.
32B\KL	.	32b/KL	.	.	.	.	.
16c\J	.	16cc/J	.	.	.	.	.
32r	.	32r	.	.	.	.	.
32c#X\Jkk	.	32cc#X/Jkk	.	[	.	.	.
16d\KL	.	16dd\KL	.	.	8.d\	Hej!	f
32r	.	32r	.	.	.	.	.
32d#X\KL	.	32dd#X\KL	.	.	.	.	.
16e\J	.	16ee\J	.	.	.	.	.
32r	.	32r	.	.	16d\	ci-	.
32f#\Jkk	.	32ff#\Jkk	.	.	.	.	.
=83	=83	=83	=83	=83	=83	=83	=83
*ped	*	*	*	*	*	*	*
8GG/	.	8gg 8b 8g\	.	f	4.g\	-pa-	.
16dLL 16B 16G 16D\	.	16ggLL 16b 16g\	.	.	.	.	.
16dJJ 16B 16G 16D\	.	16ggJJ 16b 16g\	.	.	.	.	.
*Xped	*	*	*	*	*	*	*
8d 8B 8G 8D\	.	8gg 8b 8g\	.	.	.	.	.
8D#XL 8DD#X'/	.	8bL 8g 8B'/	.	p	8B\	-nie!	.
.	.	8qdd/	.	.	8qd/	.	.
8E 8EE'/	.	8cc 8g 8c'/	.	.	8.c\	to	.
8DnJ 8DDn'/	.	8bJ 8g 8d'/	.	.	.	.	.
.	.	.	.	.	16B\	nie	.
!!LO:LB:g=original
=84	=84	=84	=84	=84	=84	=84	=84
*	*	*^	*	*	*	*	*
8CC/L	.	(4b^/	8r	.	.	4B\	frasz-	.
(16C/L	.	.	16gLL 16e\	.	.	.	.	.
16BB/JJ	.	.	16gJJ 16e\	.	.	.	.	.
8C/)	.	8a/)	8g 8e\	.	.	8A/	-ka	.
(16c\LL	.	8e'/	8ryy	.	.	8r	.	.
16B\JJ	.	.	.	.	.	.	.	.
8c'\L)	.	8aL 8e'/	4ryy	.	.	8.e\	to	.
8C'\J	.	8aJ 8e'/	.	.	.	.	.	.
.	.	.	.	.	.	16e\	pod-	.
*	*	*v	*v	*	*	*	*	*
=85	=85	=85	=85	=85	=85	=85	=85
8BB'\L	.	8aL 8d#X/	.	.	[4d#X\	-po-	.
16B'\L	.	(16aL 16d#/	.	.	.	.	.
16B'\JJ	.	16f#/JJ)	.	.	.	.	.
8BB'\L	.	8bL 8d#'/	.	.	16d#\LL]	.	.
.	.	.	.	.	16B\JJ	.	.
8B'\J	.	8bJ 8f# 8d#'/	.	.	16A#X/LL	-ra	.
.	.	.	.	.	16B/JJ	.	.
8D'\L	.	8bL 8f# 8dn'/	.	.	8.dn\	przy-	.
8dJ 8A'\	.	8aJ 8f# 8c'/	.	.	.	.	.
.	.	.	.	.	16c\	-szłych	.
=86	=86	=86	=86	=86	=86	=86	=86
8G\L	.	8gL 8B'/	.	.	4B\	dni,	.
16d^^\L	.	16bL 16g'/	.	<	.	.	.
16B\JJ	.	16bJJ 16g'/	.	.	.	.	.
16A\LL	.	8ddL 8g'/	.	.	4r	.	.
16G\	.	.	.	.	.	.	.
16F#\	.	8bJ 8g'/	.	.	.	.	.
16E\JJ	.	.	.	.	.	.	.
16D/LL	.	8aL 8g/	.	.	8.d\	hej	.
16C/	.	.	.	.	.	.	.
16BB/	.	8ddJ 8d/	.	.	.	.	.
16AA/JJ	.	.	.	[	16d\	ci-	.
!!LO:PB:g=original
=87	=87	=87	=87	=87	=87	=87	=87
*ped	*	*	*	*	*	*	*
!LO:TX:t=P:problem=mixed beam	!	!	!	!	!	!	!
8GGL 8GGG/	.	8ggL 8dd 8b 8g\	.	f	4.g;\	-pa-	.
16dL 16B 16G\	.	16ggL 16dd 16b 16g\	.	.	.	.	.
16dJJ 16B 16G\	.	16ggJJ 16dd 16b 16g\	.	.	.	.	.
8d 8B 8G\	.	8gg 8dd 8b 8g\	.	.	.	.	.
*Xped	*	*	*	*	*	*	*
8r;	.	8r;	.	.	8B\	-nie!	.
.	.	.	.	.	8qd/	.	.
4r	.	4r	.	.	8.c\	to	.
.	.	.	.	.	16B\	nie	.
=88	=88	=88	=88	=88	=88	=88	=88
4r	.	4r	.	.	4B\	frasz-	.
8C/	.	8a 8g 8e/	.	.	8A/	-ka	.
8r	.	8r	.	.	8r	.	.
8.C#X/L	.	8.eeL 8.b-X 8.g\	.	.	8.e\	to	.
16C#/Jk	.	16eeJk 16b- 16g\	.	.	16e\	pod-	.
=89	=89	=89	=89	=89	=89	=89	=89
8D\	.	8dd 8b 8g\	.	.	[4e^\	-po-	.
16r	.	16r	.	.	.	.	.
(32G\LLL	.	(32gg\LLL	.	.	.	.	.
32B\JJJ)	.	32bb\JJJ	.	.	.	.	.
8d\	.	8ddd\)	.	.	16e\LL]	.	.
.	.	.	.	.	16d\JJ	.	.
8r	.	8r	.	.	16B/LL	-ra	.
.	.	.	.	.	16G/JJ	.	.
8d 8A 8D\	.	8aa 8ff# 8cc 8a\	.	.	8.A/	przy-	.
8r	.	8r	.	.	.	.	.
.	.	.	.	.	16D/	-szłych	.
!!LO:LB:g=original
=90	=90	=90	=90	=90	=90	=90	=90
*ped	*	*	*	*	*	*	*
8GG/	.	8g^\L	.	f	4B\	dni.	.
16dLL 16B 16G'\	.	(16b\L	.	.	.	.	.
16dJJ 16B 16G'\	.	16dd\JJ	.	.	.	.	.
8dL 8B 8G'\	.	8gg\L)	.	.	4r	.	.
*Xped	*	*	*	*	*	*	*
8e 8A 8G'\	.	(16cc#X\L	.	p	.	.	.
.	.	16ee\JJ	.	.	.	.	.
8A 8F#\	.	16dd/LL	.	.	8.d\	By	.
.	.	16ccn/	.	.	.	.	.
8dJ 8A 8D\	.	16a/	.	.	.	.	.
.	.	16f#/JJ)	.	.	16d\	ta-	.
=91	=91	=91	=91	=91	=91	=91	=91
*ped	*	*	*	*	*	*	*
8GG/	.	8g^\L	.	f	4B\	-kie-	.
16dLL 16B 16G'\	.	(16b\L	.	.	.	.	.
16dJJ 16B 16G'\	.	16dd\JJ	.	.	.	.	.
*Xped	*	*	*	*	*	*	*
8dL 8B 8G'\	.	8gg\L)	.	.	8G/	-go	.
8e 8A 8G'\	.	(16cc#X\L	.	p	8r	.	.
.	.	16ee\JJ	.	.	.	.	.
8A 8F#\	.	16dd\LL	.	.	8.d\	zło-	.
.	.	16ccn\	.	.	.	.	.
8dJ 8A 8D\	.	16a\	.	.	.	.	.
.	.	16cc\JJ)	.	.	16d\	-wić	.
=92	=92	=92	=92	=92	=92	=92	=92
*ped	*	*	*	*	*	*	*
(8GL 8GG^\	.	(8b^\L	.	.	4B\	ptasz-	.
16B\L	.	16dd\L	.	.	.	.	.
16d\JJ)	.	16gg\JJ)	.	.	.	.	.
*Xped	*	*	*	*	*	*	*
8g'\	.	8bb'\	.	.	8d\	-ka	.
8dL 8D'\	.	8ff#L 8b'\	.	.	8r	.	.
8e 8E'\	.	8gg 8b'\	.	.	8.B/	oj	.
8BJ 8BB'\	.	8ddJ 8g'\	.	.	.	.	.
.	.	.	.	.	16G/	nie-	.
!!LO:LB:g=original
=93	=93	=93	=93	=93	=93	=93	=93
8c 8C\	.	8ee 8g\	.	.	8.c\	-jed-	.
16r	.	16r	.	.	.	.	.
!LO:TUP:a	!	!	!	!	!	!	!
(48A\LLL	.	16ccc 16aa 16ee\	.	.	16e\	-no	.
48B\	.	.	.	.	.	.	.
48c\JJJ	.	.	.	.	.	.	.
8d\)	.	8bb 8gg 8dd\	.	.	4.d;\	ser-	.
8r	.	8r	.	.	.	.	.
8D 8DD/	.	8ddd 8aa 8ff# 8dd\	.	.	.	.	.
8r;	.	8r;	.	.	16c\LL	-ce	.
.	.	.	.	.	16A\JJ	.	.
=94	=94	=94	=94	=94	=94	=94	=94
*ped	*	*	*	*	*	*	*
8GG 8GGG/	.	(8gg\L	.	ff	4G/	drży!	.
16dLL 16B 16G\	.	16bb\L	.	.	.	.	.
16dJJ 16B 16G\	.	16ddd\JJ	.	.	.	.	.
*Xped	*	*	*	*	*	*	*
8dL 8B 8G'\	.	8gggL 8gg\)	.	.	4r	.	.
8d 8B 8G'\	.	8fff# 8ff#'\	.	.	.	.	.
8d 8B 8G'\	.	8eee 8ee'\	.	.	4r	.	.
8dJ 8B 8G'\	.	8dddJ 8dd'\	.	.	.	.	.
=95	=95	=95	=95	=95	=95	=95	=95
.	.	8qddd/	.	.	.	.	.
8eL 8A 8G\	.	16ccc\LL	.	.	2.r	.	.
.	.	16bb\	.	.	.	.	.
16eL 16A 16G\	.	16ccc\	.	.	.	.	.
16eJJ 16A 16G\	.	16eee\JJ	.	.	.	.	.
8e 8A 8G\	.	4.aa^\	.	.	.	.	.
8eL 8c 8A 8G\	.	.	.	.	.	.	.
8d 8A 8F#\	.	.	.	.	.	.	.
8cJ 8G 8E\	.	(16aa\LL	.	.	.	.	.
.	.	16bb\JJ)	.	.	.	.	.
!!LO:LB:g=original
=96	=96	=96	=96	=96	=96	=96	=96
8cL 8A 8F# 8D/	.	8dddL 8dd^\	.	.	2.r	.	.
8DJ 8DD/	.	(16ccc\L	.	.	.	.	.
.	.	16aa\JJ)	.	.	.	.	.
8BL 8G 8D/	.	8dddL 8dd^\	.	.	.	.	.
8DJ 8DD/	.	(16bb\L	.	.	.	.	.
.	.	16ggg\JJ)	.	.	.	.	.
*	*	*8va	*	*	*	*	*
8AL 8D\	.	(16fff#LL 16ccc\	.	.	.	.	.
.	.	16cccc\	.	.	.	.	.
8dJ 8A 8D\	.	16aaa\	.	.	.	.	.
.	.	16fff#\JJ	.	.	.	.	.
=97	=97	=97	=97	=97	=97	=97	=97
8d 8B 8G\	.	8ggg\L)	.	.	2.r	.	.
*	*	*X8va	*	*	*	*	*
(16d\LL	.	(16ddd\L	.	.	.	.	.
16B\JJ	.	16bb\JJ	.	.	.	.	.
8g\)	.	8gg\)	.	.	.	.	.
!	!	!LO:TUP:a:problem=klamra łukowa	!	!	!	!	!
8eL 8E\	.	24ee\LL	.	.	.	.	.
.	.	24ff#\	.	.	.	.	.
.	.	24ee\JJ	.	.	.	.	.
8d 8D'\	.	8dd'\L	.	.	.	.	.
8BJ 8BB'\	.	8b'\J	.	.	.	.	.
=98	=98	=98	=98	=98	=98	=98	=98
4G 4GG'/	.	4g'/	.	.	2.r	.	.
4GG 4DD 4GGG/	.	4gg 4b 4g\	.	sf	.	.	.
4r	.	4r	.	.	.	.	.
==	==	==	==	==	==	==	==
*-	*-	*-	*-	*-	*-	*-	*-
!!!system-decoration: <vox>{(klav)}
!!!RDF**kern: > = above
!!!RDF**kern: < = below
!!!ENC: Arkadiusz Malec
!!!END: 2022-10-02
!!!ENC: Andrzej Kubiczek
!!!END: 2022-11-01
